X: 54
T: Xi shan diao
%%abc-version 2.0
%%abcx-abcm2ps-target-version 5.9.1 (29 Sep 2008)
%%abc-creator hum2abc beta
%%abcx-conversion-date 2013/10/02 07:44:27
%%abc-edited-by Helmut Schaffrath
%%humdrum-veritas 1769259697
%%humdrum-veritas-data 3569549343
%%continueall 1
%%barnumbers 0
L: 1/8
M: 3/4
K: G
B B d d B d [I:setbarnb 1]| 
g2<e2-e2 | 
g< g-g2b z | 
[M:2/4]B B e e | 
e e d/ B/ d | 
G A B B/ d/ | 
A> G E E | 
E2z2 | 
B B d d | 
B d g e | 
e4- | 
[M:3/4]e4d/ B/ d | 
[M:2/4]d d B B | 
G B A3/ G/ | 
B B e e | 
g e d/ B/ d | 
G A B B/ d/ | 
A> G E E | 
E2z2 | 
[M:3/4]B B d d B d | 
[M:2/4]e4- | 
e4 | 
B B e e | 
e e d/ B/ d | 
G A B B/ d/ | 
A> G E E | 
E2z2 | 
B B d d | 
B d g e | 
e4- | 
e2d/ B/ d | 
d d B B | 
G B A3/ G/ | 
B B e e | 
g e d/ B/ d | 
G A B B/ d/ | 
A4 | 
E< E-E2 | 
E2z2 |]  



